X: 1479
T: Nigâr Sazsemâîsi
C: Reftar Kalfa (Tanbûrî)
O: Turkey
F: http://compmusic.upf.edu/node/140
N: nigar--sazsemaisi--aksaksemai----tanburi_reftar_kalfa
N: makam= nigar
N: form= sazsemaisi
N: usul= aksaksemai = 10/8
M: 10/8
L: 1/16
K: C    
Q: 1/4=132
%%MIDI tuningsystem comma53
Bc2B cBc4BA Bcd4e2  | dedc cdc2 B2AG ABc4z2  | 
w:  1. HANE  |   | 
d4 cde3df3ecd e2f2  | edcB A2B2 cdcB BAA4g2  | 
w:   |   | 
ef/g/fe edc4AB/c/ BABA G2e2  | d2c2 B2A2 G2BA G^9/8FG4z2  | 
w:  MÜLÂZİME  |   | 
c4 cBc4Bc BcB2 A2G2  | AGAB c2d2 e2ed cde4f2  | 
w:   |   | 
efed edc2 d2cd cBA2 B2c2  | d4 A2BA BcBA G2A4g2  | 
w:  2. HANE  |   | 
d4 ede3ded cde2 f2g2  | a2g2 f2e2 d2ed cBc4z2  | 
w:   |   | 
ef/g/fe edc4AB/c/ BABA G2e2  | d2c2 B2A2 G2BA G^9/8FG4z2  | 
w:  MÜLÂZİME  |   | 
c4 cBc4Bc BcB2 A2G2  | AGAB c2d2 e2ed cde4f2  | 
w:   |   | 
c'4 b2a3c'ba g2a4_b2  | a2g2 fgf2 e2d4cB c3d  | \
w:  3. HANE  |   | 
cdcB A2B2 c2d4cd e3d  | 
w:   | 
edef e2d2 cded cBA4g2  | ef/g/fe edc4AB/c/ BABA G2e2  | 
w:   |  MÜLÂZİME  | 
d2c2 B2A2 G2BA G^9/8FG4z2  | c4 cBc4Bc BcB2 A2G2  | 
w:   |   | 
AGAB c2d2 e2ed cde4f2  | G4 ^9/8F2G4GA GFFE D2z2  | 
w:   |  4. HANE  | 
G^9/8FGA B2c2 d2ed cde4z2  | e4 eeef edef efed c2d2  | 
w:   |   | 
BcBc d2e2 f2ed cBA4g2  | ef/g/fe edc4AB/c/ BABA G2e2  | 
w:   |  MÜLÂZİME  | 
d2c2 B2A2 G2BA G^9/8FG4z2  | |


